X: 39386
T: Tanteeka
R: reel
M: 4/4
K: Amajor
Ac|e2 e2 dcBA|GBeB c2 BA|d3 d cBAc|BAGA Bcd^d|
e2 e2 dcBA|GBeB c2 BA|d3 d cBAc|BAGB A2:|
K:Amin
AB|c2 BA c2 BA|d3 c BA ^G2|^GABA G2 AG|F2 ED E3
E|F2 dF zFdF|E2 cE zEcE|d2 cB AB^GA|FEDc A2:|

